!!!OTL: 129. Freylekhs
!!!Genre:	Freylekhs
!!!Mode:	Minor
!!!Listening/dance:	dance
!!!:	*g:dor; *B-:
!!!One_Mode:	no
**kern
*thru
*I"P1
*clefG2
*k[b-e-]
*B-:
=17!|:
!LO:TX:a:i:t=Bb-major
(4.b-
8f)
=18
(4.b-
8f)
=19
8b-L
8f
8b-
8fJ
=20
8b-L
8fJ
4b-
=21
8b-L
8cc
8dd
8ee-J
=22
(8ddtL
8cc)
(8ccT
8b-J)
=23
8b-L
8cc
8dd
8ee-J
=24
8ddtL
8cc
8ccT
8b-J
=25
8b-L
8cc
8dd
8ee-J
=26
8ffL
8dd
8ee-
8ccJ
*>C1
=27
8ddL
8b-J
(8ffL
24ee-L
24dd
24ee-JJ)
=28
2dd
*>C
!LO:TX:a:i:t=Bb-major
(4.b-
8f)
=18
(4.b-
8f)
=19
8b-L
8f
8b-
8fJ
=20
8b-L
8fJ
4b-
=21
8b-L
8cc
8dd
8ee-J
=22
(8ddtL
8cc)
(8ccT
8b-J)
=23
8b-L
8cc
8dd
8ee-J
=24
8ddtL
8cc
8ccT
8b-J
=25
8b-L
8cc
8dd
8ee-J
=26
8ffL
8dd
8ee-
8ccJ
*>C2
=29:|!
8ddL
8b-
8cc
8aJ
=30
2b-
*>D
!!!End-Modulation
*-
